public/sheesh/clip-path-group.svg

<svg fill="none" height="14" viewBox="0 0 17 14" width="17" xmlns="http://www.w3.org/2000/svg" xmlns:xlink="http://www.w3.org/1999/xlink"><linearGradient id="a"><stop offset="0" stop-color="#00ffa3"/><stop offset="1" stop-color="#dc1fff"/></linearGradient><linearGradient id="b" gradientUnits="userSpaceOnUse" x1="15.2449" x2="6.58494" xlink:href="#a" y1="-.627964" y2="15.9872"/><linearGradient id="c" gradientUnits="userSpaceOnUse" x1="11.4482" x2="2.78833" xlink:href="#a" y1="-2.60723" y2="14.0078"/><linearGradient id="d" gradientUnits="userSpaceOnUse" x1="13.3345" x2="4.67454" xlink:href="#a" y1="-1.6246" y2="14.9905"/><mask id="e" height="14" maskUnits="userSpaceOnUse" width="17" x="0" y="0"><path d="m16.7005.849609h-15.720031v12.299991h15.720031z" fill="#fff"/></mask><g mask="url(#e)"><path d="m3.53376 10.2378c.09486-.0946.2253-.1499.36366-.1499h12.54598c.2292 0 .3438.2762.1818.438l-2.4784 2.4742c-.0949.0947-.2253.15-.3636.15h-12.54599c-.22926 0-.343879-.2763-.18182-.438z" fill="url(#b)"/><path d="m3.53376.999561c.09882-.094704.22926-.149952.36366-.149952h12.54598c.2292 0 .3438.276241.1818.438001l-2.4784 2.47422c-.0949.09468-.2253.14994-.3636.14994h-12.54599c-.22926 0-.343879-.27624-.18182-.438z" fill="url(#c)"/><path d="m14.1468 5.58842c-.0949-.09474-.2253-.14994-.3636-.14994h-12.54599c-.22926 0-.343879.27618-.18182.438l2.47837 2.47422c.09486.09468.2253.14994.36366.14994h12.54598c.2292 0 .3438-.27624.1818-.43806z" fill="url(#d)"/></g></svg>

<svg width="17" height="14" viewBox="0 0 17 14" fill="none" xmlns="http://www.w3.org/2000/svg">
<mask id="mask0_734_17620" style="mask-type:luminance" maskUnits="userSpaceOnUse" x="0" y="0" width="17" height="14">
<path d="M16.7005 0.849609H0.980469V13.1496H16.7005V0.849609Z" fill="white"/>
</mask>
<g mask="url(#mask0_734_17620)">
<path d="M3.53474 10.2378C3.6296 10.1432 3.76004 10.0879 3.8984 10.0879H16.4443C16.6736 10.0879 16.7882 10.3641 16.6261 10.5259L14.1478 13.0001C14.0529 13.0948 13.9225 13.1501 13.7842 13.1501H1.23819C1.00893 13.1501 0.894307 12.8738 1.05637 12.7121L3.53474 10.2378Z" fill="url(#paint0_linear_734_17620)"/>
<path d="M3.53474 0.999561C3.63356 0.904857 3.764 0.849609 3.8984 0.849609H16.4443C16.6736 0.849609 16.7882 1.12585 16.6261 1.28761L14.1478 3.76183C14.0529 3.85651 13.9225 3.91177 13.7842 3.91177H1.23819C1.00893 3.91177 0.894307 3.63553 1.05637 3.47377L3.53474 0.999561Z" fill="url(#paint1_linear_734_17620)"/>
<path d="M14.1478 5.58939C14.0529 5.49465 13.9225 5.43945 13.7842 5.43945H1.23819C1.00893 5.43945 0.894307 5.71563 1.05637 5.87745L3.53474 8.35167C3.6296 8.44635 3.76004 8.50161 3.8984 8.50161H16.4443C16.6736 8.50161 16.7882 8.22537 16.6261 8.06355L14.1478 5.58939Z" fill="url(#paint2_linear_734_17620)"/>
</g>
<defs>
<linearGradient id="paint0_linear_734_17620" x1="15.2458" y1="-0.627964" x2="6.58592" y2="15.9872" gradientUnits="userSpaceOnUse">
<stop stop-color="#00FFA3"/>
<stop offset="1" stop-color="#DC1FFF"/>
</linearGradient>
<linearGradient id="paint1_linear_734_17620" x1="11.4492" y1="-2.60723" x2="2.78931" y2="14.0078" gradientUnits="userSpaceOnUse">
<stop stop-color="#00FFA3"/>
<stop offset="1" stop-color="#DC1FFF"/>
</linearGradient>
<linearGradient id="paint2_linear_734_17620" x1="13.3354" y1="-1.62362" x2="4.67552" y2="14.9915" gradientUnits="userSpaceOnUse">
<stop stop-color="#00FFA3"/>
<stop offset="1" stop-color="#DC1FFF"/>
</linearGradient>
</defs>
</svg>
